storybook/icons/teaser/jigsaw-blue.svg

<svg width="87" height="86" viewBox="0 0 87 86" fill="none" xmlns="http://www.w3.org/2000/svg">
<g clip-path="url(#clip0)">
<path d="M61.779 0.586182H11.3C5.88207 0.593193 1.49163 4.98364 1.48462 10.4015V60.7641C1.49163 66.182 5.88207 70.5725 11.3 70.5795H26.7241V67.7751H11.3C7.42992 67.7705 4.29356 64.6342 4.28901 60.7641V37.0432H13.2939C14.1249 36.9824 14.7494 36.2596 14.6886 35.4284C14.6768 35.2682 14.6397 35.1108 14.5783 34.9624C13.3321 32.1264 14.6207 28.8172 17.4567 27.571C20.2926 26.3249 23.6018 27.6135 24.848 30.4494C25.4798 31.8874 25.4798 33.5244 24.848 34.9624C24.5016 35.687 24.8084 36.5551 25.5329 36.9014C25.7203 36.991 25.9249 37.0394 26.1324 37.0434H35.1373V45.4566C34.674 45.3777 34.205 45.3388 33.7351 45.3402C29.0886 45.3386 25.3207 49.104 25.3189 53.7504C25.3177 57.0979 27.3013 60.1275 30.3698 61.4654L31.4916 58.8966C28.6511 57.6609 27.35 54.3566 28.5855 51.5161C29.477 49.4667 31.5002 48.1421 33.7351 48.1446C34.5079 48.1444 35.2721 48.3058 35.9786 48.6185C36.6883 48.9282 37.5149 48.604 37.8246 47.8943C37.9017 47.7176 37.9415 47.5269 37.9417 47.3341V37.0432H45.0718C44.9921 37.5063 44.9521 37.9755 44.9526 38.4454C44.961 42.4406 47.7705 45.8823 51.6832 46.6903L52.244 43.9434C49.6356 43.4037 47.7628 41.1091 47.757 38.4454C47.7568 37.6726 47.9183 36.9084 48.231 36.2019C48.5407 35.4922 48.2164 34.6656 47.5067 34.3559C47.3301 34.2788 47.1394 34.239 46.9466 34.2388H37.9417V27.1087C38.4047 27.1884 38.8739 27.2284 39.3439 27.2279C43.9904 27.2279 47.757 23.4612 47.757 18.8147C47.757 14.1682 43.9904 10.4015 39.3439 10.4015C38.8739 10.401 38.4047 10.441 37.9417 10.5207V3.39057H61.779C65.649 3.39513 68.7854 6.53148 68.7899 10.4015V34.2388H59.785C59.0107 34.2392 58.3832 34.8674 58.3835 35.6417C58.3837 35.8345 58.4235 36.0252 58.5006 36.2019C58.8133 36.9084 58.9747 37.6726 58.9746 38.4454H61.779C61.7795 37.9755 61.7395 37.5063 61.6598 37.0432H70.1921C70.9665 37.0432 71.5943 36.4154 71.5943 35.641V10.4015C71.5873 4.98364 67.1969 0.593193 61.779 0.586182ZM39.3439 13.2059C42.4415 13.2059 44.9526 15.7171 44.9526 18.8147C44.9526 21.9123 42.4415 24.4235 39.3439 24.4235C38.5711 24.4237 37.8069 24.2622 37.1003 23.9495C36.3907 23.6398 35.5641 23.9641 35.2544 24.6738C35.1772 24.8504 35.1374 25.0411 35.1373 25.2339V34.1225H28.0169C28.0872 33.6974 28.1237 33.2675 28.1263 32.8366C28.1263 32.8114 28.1263 32.789 28.1263 32.7637C28.1263 32.7385 28.1263 32.7343 28.1263 32.7203C28.1263 28.0737 24.3597 24.3071 19.7131 24.3071C15.0666 24.3071 11.3 28.0737 11.3 32.7203C11.3 32.7343 11.3 32.7497 11.3 32.7637C11.3 32.7777 11.3 32.8114 11.3 32.8366C11.3026 33.2675 11.3391 33.6974 11.4093 34.1225H4.28901V10.4015C4.29356 6.53148 7.42992 3.39513 11.3 3.39057H35.1373V12.3955C35.1376 13.1698 35.7658 13.7973 36.5402 13.797C36.733 13.7968 36.9237 13.757 37.1003 13.6799C37.8069 13.3672 38.5711 13.2058 39.3439 13.2059Z" fill="#0678BE"/>
<path d="M82.617 60.8553L70.8288 52.738L66.3011 40.6412C66.031 39.9154 65.2237 39.5461 64.4979 39.8162C64.4719 39.8259 64.4462 39.8364 64.4208 39.8476L55.3065 43.8789C54.6233 44.1806 54.2966 44.9649 54.5633 45.6625C54.7148 46.0551 54.8564 46.3524 55.0064 46.6609C55.1565 46.9693 55.2953 47.2582 55.465 47.7139C56.5534 50.6222 55.0879 53.8638 52.1852 54.9675C49.2839 56.0526 46.0522 54.5805 44.9669 51.679C44.6947 50.9512 44.5767 50.1749 44.6204 49.3993C44.661 48.626 44.067 47.9661 43.2937 47.9255C43.0999 47.9153 42.9062 47.9454 42.7246 48.014L32.9822 51.6835C32.2588 51.9561 31.8925 52.7627 32.1633 53.4867L35.6604 62.8296C35.1968 62.914 34.7416 63.0397 34.3002 63.2053C29.9368 64.8314 27.7178 69.6868 29.3438 74.0503C30.9699 78.4137 35.8253 80.6327 40.1888 79.0067C40.638 78.8393 41.0721 78.6339 41.4865 78.3925L43.9936 85.0894C44.2653 85.8147 45.0733 86.1822 45.7986 85.9105C45.7995 85.9102 45.8002 85.9098 45.801 85.9097L59.694 80.6753C60.5667 82.5511 62.1725 83.985 64.1347 84.6407L65.0209 81.9765C63.8651 81.587 62.9046 80.7662 62.3399 79.6853L66.5675 78.0938C67.9562 81.9998 71.6556 84.6068 75.801 84.6014V81.797C71.9388 81.7734 68.8137 78.6482 68.79 74.7861C68.79 74.4141 68.6421 74.0576 68.3792 73.7947L63.4967 68.9123C62.7728 68.1821 62.6912 67.0326 63.3046 66.2074C63.6618 65.7253 64.2132 65.4248 64.812 65.3858C65.4116 65.3353 66.0021 65.5561 66.4217 65.9873L76.2118 75.7774L78.1945 73.7947L75.2976 70.8978C76.0113 68.7635 75.9673 66.4483 75.1728 64.3425L72.5451 57.3245L81.0185 63.1591C82.1417 63.9475 82.8109 65.2334 82.8119 66.6057V84.7178H85.6163V66.6057C85.6144 64.3143 84.4949 62.1681 82.617 60.8553ZM72.5465 65.3255C72.9338 66.355 73.0741 67.461 72.9559 68.5547L68.4044 64.0046C66.5256 62.0778 63.4408 62.0391 61.514 63.9177C59.5872 65.7964 59.5485 68.8813 61.4271 70.808C61.4556 70.8373 61.4846 70.8664 61.514 70.895L65.9492 75.3301L46.1334 82.794L43.4608 75.6526C43.2944 75.2088 42.9151 74.8793 42.4526 74.7762C42.3527 74.7542 42.2507 74.7428 42.1483 74.7426C41.7815 74.7422 41.4292 74.8858 41.1668 75.1422C38.9152 77.2695 35.3652 77.1687 33.2379 74.917C31.1106 72.6654 31.2114 69.1154 33.4631 66.9881C33.9928 66.4877 34.6147 66.0954 35.2944 65.8329C35.7408 65.6674 36.207 65.5619 36.6812 65.5188C36.9728 65.483 37.2669 65.4732 37.5603 65.4893C38.3336 65.5298 38.9936 64.9358 39.034 64.1625C39.0442 63.9702 39.0146 63.778 38.9471 63.5978L35.2846 53.8189L41.9618 51.3048C42.8382 55.8678 47.2477 58.8564 51.8108 57.9802C52.2771 57.8907 52.7349 57.7619 53.1794 57.595C57.5274 55.9453 59.7252 51.0925 58.0969 46.7364C57.9679 46.3915 57.8515 46.118 57.7393 45.8741L64.1894 43.0178L72.5465 65.3255Z" fill="#0678BE"/>
</g>
<defs>
<clipPath id="clip0">
<rect width="85.4139" height="85.4139" fill="white" transform="translate(0.843506 0.586182)"/>
</clipPath>
</defs>
</svg>

<svg width="87" height="86" fill="none" xmlns="http://www.w3.org/2000/svg"><g clip-path="url(#clip0)" fill="#0678BE"><path d="M61.779.586H11.3c-5.418.007-9.808 4.398-9.815 9.816v50.362c.007 5.418 4.397 9.809 9.815 9.815h15.424v-2.804H11.3a7.02 7.02 0 01-7.011-7.01V37.042h9.005a1.509 1.509 0 001.284-2.08 5.609 5.609 0 1110.27 0 1.454 1.454 0 001.284 2.08h9.005v8.414a8.413 8.413 0 00-4.768 16.009l1.123-2.57a5.609 5.609 0 012.243-10.751 5.54 5.54 0 012.244.473 1.402 1.402 0 001.963-1.284v-10.29h7.13c-.08.462-.12.931-.12 1.401a8.437 8.437 0 006.731 8.245l.561-2.747a5.627 5.627 0 01-4.487-5.498c0-.772.161-1.537.474-2.243a1.402 1.402 0 00-1.284-1.963h-9.005v-7.13a8.413 8.413 0 100-16.588V3.39h23.837a7.02 7.02 0 017.01 7.01V34.24h-9.004a1.402 1.402 0 00-1.284 1.963c.312.706.474 1.47.474 2.243h2.804c0-.47-.04-.939-.12-1.402h8.533c.775 0 1.402-.628 1.402-1.402v-25.24C71.587 4.984 67.197.593 61.78.586zm-22.435 12.62a5.609 5.609 0 010 11.218 5.54 5.54 0 01-2.244-.474 1.402 1.402 0 00-1.963 1.284v8.889h-7.12c.07-.426.107-.855.11-1.286v-.073-.044a8.413 8.413 0 10-16.827 0V32.837c.003.43.04.86.11 1.285H4.288v-23.72A7.02 7.02 0 0111.3 3.39h23.837v9.005A1.402 1.402 0 0037.1 13.68a5.542 5.542 0 012.244-.474z"/><path d="M82.617 60.855l-11.788-8.117L66.3 40.641a1.402 1.402 0 00-1.88-.793l-9.115 4.03a1.402 1.402 0 00-.743 1.785c.152.392.293.69.443.998.15.308.29.597.459 1.053a5.644 5.644 0 01-3.28 7.254 5.609 5.609 0 01-7.565-5.569 1.402 1.402 0 00-1.895-1.385l-9.743 3.67a1.402 1.402 0 00-.819 1.803l3.497 9.343a7.9 7.9 0 00-1.36.375 8.432 8.432 0 107.187 15.188l2.507 6.696a1.402 1.402 0 001.805.822l.002-.001 13.893-5.235a7.53 7.53 0 004.44 3.966l.887-2.665a4.728 4.728 0 01-2.681-2.29l4.227-1.592a9.786 9.786 0 009.234 6.507v-2.804a7.054 7.054 0 01-7.011-7.01c0-.373-.148-.73-.41-.992l-4.883-4.883a2.08 2.08 0 01-.192-2.705 2.041 2.041 0 011.507-.821c.6-.05 1.19.17 1.61.601l9.79 9.79 1.983-1.982-2.897-2.897a9.782 9.782 0 00-.125-6.555l-2.628-7.019 8.474 5.835a4.215 4.215 0 011.793 3.447v18.112h2.804V66.606a7.023 7.023 0 00-2.999-5.75zm-10.07 4.47a7.027 7.027 0 01.409 3.23l-4.552-4.55a4.873 4.873 0 10-6.89 6.89l4.435 4.435-19.816 7.464-2.672-7.141a1.402 1.402 0 00-2.294-.51 5.609 5.609 0 11-5.873-9.31 5.393 5.393 0 011.387-.314c.292-.036.586-.046.88-.03a1.402 1.402 0 001.386-1.891l-3.662-9.78 6.677-2.513a8.413 8.413 0 0011.217 6.29 8.45 8.45 0 004.918-10.859 12.46 12.46 0 00-.358-.862l6.45-2.856 8.358 22.308z"/></g><defs><clipPath id="clip0"><path fill="#fff" transform="translate(.844 .586)" d="M0 0h85.414v85.414H0z"/></clipPath></defs></svg>
